public/banners/sakura.svg

<svg xmlns="http://www.w3.org/2000/svg" width="175" height="167" fill="none" xmlns:v="https://vecta.io/nano"><style><![CDATA[.B{fill:#eee9d6}]]></style><path d="M175 156.8s-3.4-5.5-11.9-9.8c-15-7.5-47.3-14.9-56-17.4s-17.9-3-21.6-1-.5-2.5-.5-2.5l13.7-.3s-3.9-6.9-5.3-8.8c-2.7-3.5-14-20.1-16.6-19l2.5-3.4s1.1 2.1 7.8 12c3.8 5.5 6.2 7.6 6.2 7.6s-2.5-6.3-3.7-11.3l1.1.2s.6 6.4 4.5 13.2c.9 1.5 2.8 5.9 5.8 7.3 9.7 4.3 74 22.2 74 22.2v10.9.1z" fill="#b473f5"/><path d="M87.7 120.2c-3.3-4.2-9.7-8.3-12.5-5.2s-3.3 5.5-4.4 2.3-.8-8.9-13.9-5.8c-11.4 2.7-9.8 10-9.4 11 .6 1.7 3.2 3.6 6.8 5.3 2.2 1 1.8 2.7.5 2.5-3.2-.6-10.9-3.4-9.4 7.3 1.4 9.7 11.6 13.8 15.9 13 3.5-.7 6.2-6.7 7.1-6.6s1.2.9-1.5 3.9c-4.3 4.7-4.7 9.3 0 11.4 4.8 2.3 18.1-.7 17.9-5.5-.2-4.1-.7-8.6 2.3-6.2 3.7 2.8 9.3 1.4 8-7.1-1.6-10.4-7.3-4.8-8.3-5.3s.2-.9 2.5-2.1 5.3-4.3-1.4-12.8h-.2v-.1z" fill="url(#A)"/><path d="M34.4 167s7.6-8.2 4.6-8.5c-6.3-.4-5.2-2.5-4.6-4.2 2.6-8.6 6-11.2-2.1-16.2S21 136.6 15 140.3s-5.4 6.2-2.9 10 2.6 5.2-1.8 2.8S-1.8 151.5.9 167h33.5z" class="B"/><path d="M89.5 86.5c-1.6 0-1.6 10.9.5 17.7 0 0 1.7-.2 2.6-7.3.8-7.1-1.6-10.4-3.1-10.4z" fill="url(#B)"/><path d="M175 114.6s1.8-.7-27-21.6l-46.1-33.8c-1.9-1.6-3.7-6-4.7-9.3-.2-.8-4.5-5.8-8.1-8.4-6.8-4.8.6-.6.6-.6s5.5 5.5 6.5 5.8c.6.2.5-3.6.4-6.3 0-2.7-.8-7.4-2-9.6-2.1-3.8 1.3-.9 1.3-.9s1.2 6 1.6 10.9c.6 8.5 2.4 14.4 5.7 17.2 3.7 3.1 26.4 17.8 35.5 25 9 7.2 25.8 20.6 36.3 24.5v7.2-.1z" fill="#b473f5"/><path d="M74.2 33c-.4-3.3 3.6-2.8 9.3 2a102.98 102.98 0 0 1 7.3 6.9c-.3.7-2.9 0-7.8-2-5.9-2.4-8.5-4.6-8.8-7v.1z" class="B"/><path d="M122.8 18.9c1.2-3.4 5.4-11.8 12-11.3 4.7.3 9 2.1 10.5 7 1.6 5.4-.6 12.7 1.1 13.8 2.2 1.4 12 2.8 11.5 8.2-.5 4.6-3.5 10-9 8.8l-21.5-4.6-4.5-21.8-.1-.1z" fill="url(#C)"/><path d="M125.6 45.2c-3.5-.5-13.3-17.7-14.8-27-1.6-9.3.8-11.2 3.3-10.1 3 1.3 14.3 12.4 16.5 20.1 2 6.7 2.9 11.8 3.8 12.5 1.9 1.4 15 5.2 16.7 4.8 0 0-1.2 3.4-25.5-.3z" class="B"/><path d="M145.3 131.5c2.5 2.1 25.8 14.4 25.8 3.4s-4.2-7.8-6.1-8.9.4-2.4 2.7-4.5 4.5-5.4 1.3-13-7.5-12.4-11.2-12.7c-5.3-.4-6.9 5.4-8.7 4-2.4-1.9 1.6-9.4-4.4-10.8-5-1.2-14.5-1.3-14.9 7s8.2 29.6 15.4 35.5h.1z" fill="url(#D)"/><path d="M170.9 136.8c-1.2 1.9-5.3 1.9-9.9-.8-5.2-3-6-4.1-9-4.1s-6.6-1.5-3.7-3.4 11-4.8 8.4-12.6-8-13.7-12.4-14.1-5.3 1.2-5.9 4.2c-.5 3-1.4 9-2.1 7.5-.8-1.5 1.9-8.1-.5-12.4s-5-8.6-5.7-7.5c-1.2 2.1-2.7 15 8.3 30.4 11.3 15.8 30.6 20.3 32.5 12.8z" class="B"/><path d="M141 137.1c1 0 5.9-4.3 5.4-11.8s-7.8-11.5-10.8 0c-2.9 11.5 5.3 11.8 5.3 11.8h.1z" fill="url(#E)"/><path d="M45.8 151.2c-3 0-16 13.4-27.1 15.8h33.1s5.1-7.9 3-10.8-6.8-5-8.9-5h-.1z" fill="url(#F)"/><path d="M69.2 58.5c.8 0 6.4-6.1 10.1-.8 3.6 5.3 10.4 25-.2 38.6-8.7 11.2-29.5 10.9-32.7 10-1.5-.4-2.9-2-2.1-6.2.9-4.4 3.1-4.8 2.9-5.2-.3-.9-5.2-.4-6.7-5.1-1.7-5 9.1-16.1 12.8-13.9C56.4 77.7 58 81 59 80c1.7-1.5-3.7-1.9-5.8-8.4-2.1-6.6 4.1-14.7 8.9-15.2 5.3-.6 6.4 2 7.2 2h-.1v.1z" fill="url(#G)"/><g class="B"><path d="M72.7 87.2c-1.6-8.2-.2-9.7 3.7-16.2 4-6.7 2.6-13.5.2-15.3 4.9.3 12.6 14.9 9.2 28.6C83 95.7 75 100.7 72.4 101.8c2.9-3.4 1.5-8.1.2-14.7l.1.1z"/><path d="M46.4 106.4c-.2 0-.5-.2-.7-.3 1.5-.4 2.4-2.9 3.8-7.7 1.4-4.9 5.5-7 15.8-7.8 9.3-.7 11 4.2 10.5 7.1l-.7 2.5c-9.9 7.3-26 7-28.8 6.2h.1z"/></g><path d="M164.3 63.9s5.2 6.8 3.3 12.6-5.2 9.7-11.5 8.1-15.1-10-19.1-4.9-4.9 6.5-8 5.6c-3-.9-6.4-10.5-2.7-18.8 0 0-4.6-1.8-6.2-5.9s-2.4-13.5.2-15.3 12.1-3 17.3 2.8c3.5 3.9 3.4 11.1 4.2 11.1s-1.3-4.1 1.8-6.5c3-2.4 13.5-7.3 19.4-3.5s1.9 14 1.3 14.8v-.1z" fill="url(#H)"/><path d="M161.4 84.5c-4.3 1.7-9.7 1.2-15.9-.7s-4.6-1.7-8.2.2-6.8 2-8.1 1.3c0 0 1.6.2 4.5-4.6s3.7-7.8 8.1-7.3c4.7.5 6 1.2 8.8 4.6 3.6 4.3 6.1 6.5 10.9 6.5h-.1z" class="B"/><path d="M104 41.7c-3.8 1.7-4.4 7.3-3 14.1 0 0-13 5.1-11.9 16.3S102.3 84 102.3 84s-3 8.2 2.8 12.2 14.6-2.8 13.8-13.3 3.2-20.1-1.6-27.1S104 41.7 104 41.7z" fill="url(#I)"/><path d="M104 41.7c3.9-1.3 16 1.2 18.5 23.2 2.5 21.9-5.1 30.9-9.5 30.1s-9-12.2-4.4-18.7 10-7.1 9.7-10.3-9.2-4.2-13-8.9c-4.8-5.9-5.4-14-1.3-15.4z" class="B"/><path d="M137 132.8c-.5-4.5-2.1-10.7-4.7-12.2-2.6-1.6-3.5 1.6-4.2 1.5-1 0 1.9-8.5-8.7-12.4-8.3-3.1-14.2.8-14.2 6.3s.8 9.4 3 10.9 3.2.9 3.3 2.2c0 1.2-12-1.2-12.6 15.3-.2 5.9 2.8 10.5 7.5 10.6 3.7 0 5-.5 6.6-1.3s3.1-1.5 2.7 1c-.6 3.2-1 5.9 3.1 6.4 4.1.6 15.6 1.9 18.9-2.1 3.5-4.1 1.1-6.1 0-8.4-1.2-2.3-.7-17.8-.7-17.8z" fill="url(#J)"/><path d="M131.1 120.1c2.6 0 9 7.1 10.9 16.9s-2.6 19.6-3.4 20.8c0 0 1.3-3-.9-7.2-3.3-6.4-4.6-7.4-3.8-16.6.7-8.8 0-13.3-2.8-13.9zM95 31.8c2.7-.2 3.1-10.6.3-18.7-3.9-11.2-9.5-10-9.5-10s-3.3-4.7-6.1-1c-.3.4-.8.7-1.3.7-1.7 0-5 1.3-2.3 9.5 3.5 10.6 13.8 19.9 19.1 19.5H95z" class="B"/><path d="M95 31.8c2.7-.2 3.1-10.6.3-18.7-3.9-11.2-9.5-10-9.5-10-2.6 3.2-2.9 8.2-7.9 13.5 4.4 8.7 12.6 15.5 17.2 15.2H95z" fill="url(#K)"/><path d="M78.2 2.8c-1.7 0-5 1.3-2.3 9.5.5 1.5 1.3 2.9 2 4.3 0 0-.9-10.5 1.7-14.3-.3.4-.9.6-1.4.6v-.1z" fill="url(#L)"/><path d="M95.5 31.6c-8.6-6.5-13.3-19.5-11.8-25.2-.8 1.8-2.4 3.5-3 6.2 1.4 9 10.8 16.4 14.7 19.1l.1-.1z" class="B"/><defs><linearGradient id="A" x1="222.3" y1="70.4" x2="-142.7" y2="223.2" href="#M"><stop stop-color="#f2dbdf"/><stop offset=".5" stop-color="#f9c3f0"/><stop offset=".8" stop-color="#fdb5fb"/><stop offset="1" stop-color="#ffb0ff"/></linearGradient><linearGradient id="B" x1="88.8" y1="79.8" x2="94.8" y2="128.9" href="#M"><stop stop-color="#f2dbdf"/><stop offset=".5" stop-color="#f9c3f0"/><stop offset=".8" stop-color="#fdb5fb"/><stop offset="1" stop-color="#ffb0ff"/></linearGradient><linearGradient id="C" x1="153.4" y1="14.6" x2="126.6" y2="42.3" href="#M"><stop offset=".2" stop-color="#eee9d6"/><stop offset=".3" stop-color="#f2dbdf"/><stop offset=".6" stop-color="#f9c3f0"/><stop offset=".8" stop-color="#fdb5fb"/><stop offset="1" stop-color="#ffb0ff"/></linearGradient><linearGradient id="D" x1="171.1" y1="113.9" x2="129.9" y2="113.9" href="#M"><stop offset=".2" stop-color="#eee9d6"/><stop offset=".3" stop-color="#f2dbdf"/><stop offset=".6" stop-color="#f9c3f0"/><stop offset=".8" stop-color="#fdb5fb"/><stop offset="1" stop-color="#ffb0ff"/></linearGradient><linearGradient id="E" x1="142.8" y1="146.4" x2="138.4" y2="107" href="#M"><stop offset=".2" stop-color="#eee9d6"/><stop offset=".3" stop-color="#f2dbdf"/><stop offset=".6" stop-color="#f9c3f0"/><stop offset=".8" stop-color="#fdb5fb"/><stop offset="1" stop-color="#ffb0ff"/></linearGradient><linearGradient id="F" x1="54.6" y1="129.4" x2="21.1" y2="194.7" href="#M"><stop offset=".2" stop-color="#eee9d6"/><stop offset=".3" stop-color="#f2dbdf"/><stop offset=".6" stop-color="#f9c3f0"/><stop offset=".8" stop-color="#fdb5fb"/><stop offset="1" stop-color="#ffb0ff"/></linearGradient><linearGradient id="G" x1="36.677" y1="74.021" x2="80.899" y2="86.43" href="#M"><stop offset=".2" stop-color="#eee9d6"/><stop offset=".3" stop-color="#f2dbdf"/><stop offset=".6" stop-color="#f9c3f0"/><stop offset=".8" stop-color="#fdb5fb"/><stop offset="1" stop-color="#ffb0ff"/></linearGradient><linearGradient id="H" x1="164.8" y1="43.1" x2="119.8" y2="84.9" href="#M"><stop offset=".2" stop-color="#eee9d6"/><stop offset=".3" stop-color="#f2dbdf"/><stop offset=".6" stop-color="#f9c3f0"/><stop offset=".8" stop-color="#fdb5fb"/><stop offset="1" stop-color="#ffb0ff"/></linearGradient><linearGradient id="I" x1="85.8" y1="70.2" x2="117.5" y2="69.2" href="#M"><stop offset=".2" stop-color="#eee9d6"/><stop offset=".3" stop-color="#f2dbdf"/><stop offset=".6" stop-color="#f9c3f0"/><stop offset=".8" stop-color="#fdb5fb"/><stop offset="1" stop-color="#ffb0ff"/></linearGradient><linearGradient id="J" x1="94.7" y1="160.5" x2="133.1" y2="125.2" href="#M"><stop offset=".2" stop-color="#eee9d6"/><stop offset=".3" stop-color="#f2dbdf"/><stop offset=".6" stop-color="#f9c3f0"/><stop offset=".8" stop-color="#fdb5fb"/><stop offset="1" stop-color="#ffb0ff"/></linearGradient><linearGradient id="K" x1="83.508" y1="-2.239" x2="90.553" y2="34.884" href="#M"><stop stop-color="#f2dbdf"/><stop offset=".5" stop-color="#f9c3f0"/><stop offset=".8" stop-color="#fdb5fb"/><stop offset="1" stop-color="#ffb0ff"/></linearGradient><linearGradient id="L" x1="81.123" y1="11.781" x2="69.148" y2=".219" href="#M"><stop stop-color="#f2dbdf"/><stop offset=".5" stop-color="#f9c3f0"/><stop offset=".8" stop-color="#fdb5fb"/><stop offset="1" stop-color="#ffb0ff"/></linearGradient><linearGradient id="M" gradientUnits="userSpaceOnUse"/></defs></svg>

<svg width="175" height="167" viewBox="0 0 175 167" fill="none" xmlns="http://www.w3.org/2000/svg">
<path d="M175 156.8C175 156.8 171.6 151.3 163.1 147C148.1 139.5 115.8 132.1 107.1 129.6C98.4 127.1 89.2 126.6 85.5 128.6C81.8 130.6 85 126.1 85 126.1L98.7 125.8C98.7 125.8 94.8 118.9 93.4 117C90.7 113.5 79.4 96.9 76.8 98L79.3 94.6C79.3 94.6 80.4 96.7 87.1 106.6C90.9 112.1 93.3 114.2 93.3 114.2C93.3 114.2 90.8 107.9 89.6 102.9L90.7 103.1C90.7 103.1 91.3 109.5 95.2 116.3C96.1 117.8 98 122.2 101 123.6C110.7 127.9 175 145.8 175 145.8V156.7V156.8Z" fill="#B473F5"/>
<path d="M87.7 120.2C84.4 116 78 111.9 75.2 115C72.4 118.1 71.9 120.5 70.8 117.3C69.7 114.1 70.0001 108.4 56.9001 111.5C45.5001 114.2 47.1 121.5 47.5 122.5C48.1 124.2 50.7 126.1 54.3 127.8C56.5 128.8 56.1 130.5 54.8 130.3C51.6 129.7 43.9001 126.9 45.4001 137.6C46.8001 147.3 57 151.4 61.3 150.6C64.8 149.9 67.5001 143.9 68.4001 144C69.3001 144.1 69.6001 144.9 66.9001 147.9C62.6001 152.6 62.2001 157.2 66.9001 159.3C71.7001 161.6 85 158.6 84.8 153.8C84.6 149.7 84.1 145.2 87.1 147.6C90.8 150.4 96.4 149 95.1 140.5C93.5 130.1 87.8 135.7 86.8 135.2C85.8 134.7 87 134.3 89.3 133.1C91.6 131.9 94.6001 128.8 87.9001 120.3H87.7V120.2Z" fill="url(#paint0_linear_5_4)"/>
<path d="M34.4 167C34.4 167 42 158.8 39 158.5C32.7 158.1 33.8 156 34.4 154.3C37 145.7 40.4 143.1 32.3 138.1C24.2 133.1 21 136.6 15 140.3C8.99999 144 9.6 146.5 12.1 150.3C14.6 154.1 14.7 155.5 10.3 153.1C5.89998 150.7 -1.80001 151.5 0.899986 167H34.4Z" fill="#EEE9D6"/>
<path d="M89.5 86.5C87.9 86.5 87.9 97.4 90 104.2C90 104.2 91.7 104 92.6 96.9C93.4 89.8 91 86.5 89.5 86.5Z" fill="url(#paint1_linear_5_4)"/>
<path d="M175 114.6C175 114.6 176.8 113.9 148 93C118 71.2 105.5 62.2 101.9 59.2C100 57.6 98.2 53.2 97.2 49.9C97 49.1 92.7 44.1 89.1 41.5C82.3 36.7 89.7 40.9 89.7 40.9C89.7 40.9 95.2 46.4 96.2 46.7C96.8 46.9 96.7 43.1 96.6 40.4C96.6 37.7 95.8 33 94.6 30.8C92.5 27 95.9 29.9 95.9 29.9C95.9 29.9 97.1 35.9 97.5 40.8C98.1 49.3 99.9 55.2 103.2 58C106.9 61.1 129.6 75.8 138.7 83C147.7 90.2 164.5 103.6 175 107.5V114.7V114.6Z" fill="#B473F5"/>
<path d="M74.2 33C73.8 29.7 77.8 30.2 83.5 35C87.5 38.4 90.8 41.9 90.8 41.9C90.5 42.6 87.9 41.9 83 39.9C77.1 37.5 74.5 35.3 74.2 32.9V33Z" fill="#EEE9D6"/>
<path d="M122.8 18.9C124 15.5 128.2 7.1 134.8 7.6C139.5 7.9 143.8 9.7 145.3 14.6C146.9 20 144.7 27.3 146.4 28.4C148.6 29.8 158.4 31.2 157.9 36.6C157.4 41.2 154.4 46.6 148.9 45.4C141.7 43.8 127.4 40.8 127.4 40.8L122.9 19L122.8 18.9Z" fill="url(#paint2_linear_5_4)"/>
<path d="M125.6 45.2C122.1 44.7 112.3 27.5 110.8 18.2C109.2 8.9 111.6 7 114.1 8.1C117.1 9.4 128.4 20.5 130.6 28.2C132.6 34.9 133.5 40 134.4 40.7C136.3 42.1 149.4 45.9 151.1 45.5C151.1 45.5 149.9 48.9 125.6 45.2Z" fill="#EEE9D6"/>
<path d="M145.3 131.5C147.8 133.6 171.1 145.9 171.1 134.9C171.1 123.9 166.9 127.1 165 126C163.1 124.9 165.4 123.6 167.7 121.5C170 119.4 172.2 116.1 169 108.5C165.8 100.9 161.5 96.1 157.8 95.8C152.5 95.4 150.9 101.2 149.1 99.8C146.7 97.9 150.7 90.4 144.7 89C139.7 87.8 130.2 87.7 129.8 96C129.4 104.3 138 125.6 145.2 131.5H145.3Z" fill="url(#paint3_linear_5_4)"/>
<path d="M170.9 136.8C169.7 138.7 165.6 138.7 161 136C155.8 133 155 131.9 152 131.9C149 131.9 145.4 130.4 148.3 128.5C151.2 126.6 159.3 123.7 156.7 115.9C154.1 108.1 148.7 102.2 144.3 101.8C139.9 101.4 139 103 138.4 106C137.9 109 137 115 136.3 113.5C135.5 112 138.2 105.4 135.8 101.1C133.4 96.8 130.8 92.5 130.1 93.6C128.9 95.7 127.4 108.6 138.4 124C149.7 139.8 169 144.3 170.9 136.8Z" fill="#EEE9D6"/>
<path d="M141 137.1C142 137.1 146.9 132.8 146.4 125.3C145.9 117.8 138.6 113.8 135.6 125.3C132.7 136.8 140.9 137.1 140.9 137.1H141Z" fill="url(#paint4_linear_5_4)"/>
<path d="M45.8 151.2C42.8 151.2 29.8 164.6 18.7 167H51.8C51.8 167 56.9 159.1 54.8 156.2C52.7 153.3 48 151.2 45.9 151.2H45.8Z" fill="url(#paint5_linear_5_4)"/>
<path d="M69.2 58.5C70 58.5 75.6 52.4 79.3 57.7C82.9 63 89.7 82.7 79.1 96.3C70.4 107.5 49.6 107.2 46.4 106.3C44.9 105.9 43.5 104.3 44.3 100.1C45.2 95.7 47.4 95.3 47.2 94.9C46.9 94 42 94.5 40.5 89.8C38.8 84.8 49.6 73.7 53.3 75.9C56.4 77.7 58 81 59 80C60.7 78.5 55.3 78.1 53.2 71.6C51.1 65 57.3 56.9 62.1 56.4C67.4 55.8 68.5 58.4 69.3 58.4H69.2V58.5Z" fill="url(#paint6_linear_5_4)"/>
<path d="M72.7 87.2C71.1 79 72.5001 77.5 76.4001 71C80.4001 64.3 79 57.5 76.6 55.7C81.5 56 89.2 70.6 85.8 84.3C83 95.7 75.0001 100.7 72.4001 101.8C75.3001 98.4 73.9 93.7 72.6 87.1L72.7 87.2Z" fill="#EEE9D6"/>
<path d="M46.4 106.4C46.2 106.4 45.9 106.2 45.7 106.1C47.2 105.7 48.1 103.2 49.5 98.4C50.9 93.5 55 91.4 65.3 90.6C74.6 89.9 76.3 94.8 75.8 97.7L75.1 100.2C65.2 107.5 49.1 107.2 46.3 106.4H46.4Z" fill="#EEE9D6"/>
<path d="M164.3 63.9C164.3 63.9 169.5 70.7 167.6 76.5C165.7 82.3 162.4 86.2 156.1 84.6C149.8 83 141 74.6 137 79.7C133 84.8 132.1 86.2 129 85.3C126 84.4 122.6 74.8 126.3 66.5C126.3 66.5 121.7 64.7 120.1 60.6C118.5 56.5 117.7 47.1 120.3 45.3C122.9 43.5 132.4 42.3 137.6 48.1C141.1 52 141 59.2 141.8 59.2C142.6 59.2 140.5 55.1 143.6 52.7C146.6 50.3 157.1 45.4 163 49.2C168.9 53 164.9 63.2 164.3 64V63.9Z" fill="url(#paint7_linear_5_4)"/>
<path d="M161.4 84.5C157.1 86.2 151.7 85.7 145.5 83.8C139.3 81.9 140.9 82.1 137.3 84C133.7 85.9 130.5 86 129.2 85.3C129.2 85.3 130.8 85.5 133.7 80.7C136.6 75.9 137.4 72.9 141.8 73.4C146.5 73.9 147.8 74.6 150.6 78C154.2 82.3 156.7 84.5 161.5 84.5H161.4Z" fill="#EEE9D6"/>
<path d="M104 41.7C100.2 43.4 99.6 49 101 55.8C101 55.8 88 60.9 89.1 72.1C90.2 83.3 102.3 84 102.3 84C102.3 84 99.3 92.2 105.1 96.2C110.9 100.2 119.7 93.4 118.9 82.9C118.1 72.4 122.1 62.8 117.3 55.8C112.5 48.8 104 41.7 104 41.7Z" fill="url(#paint8_linear_5_4)"/>
<path d="M104 41.7C107.9 40.4 120 42.9 122.5 64.9C125 86.8 117.4 95.8 113 95C108.6 94.2 104 82.8 108.6 76.3C113.2 69.8 118.6 69.2 118.3 66C118 62.8 109.1 61.8 105.3 57.1C100.5 51.2 99.9 43.1 104 41.7Z" fill="#EEE9D6"/>
<path d="M137 132.8C136.5 128.3 134.9 122.1 132.3 120.6C129.7 119 128.8 122.2 128.1 122.1C127.1 122.1 130 113.6 119.4 109.7C111.1 106.6 105.2 110.5 105.2 116C105.2 121.5 106 125.4 108.2 126.9C110.4 128.4 111.4 127.8 111.5 129.1C111.5 130.3 99.5 127.9 98.9 144.4C98.7 150.3 101.7 154.9 106.4 155C110.1 155 111.4 154.5 113 153.7C114.6 152.9 116.1 152.2 115.7 154.7C115.1 157.9 114.7 160.6 118.8 161.1C122.9 161.7 134.4 163 137.7 159C141.2 154.9 138.8 152.9 137.7 150.6C136.5 148.3 137 132.8 137 132.8Z" fill="url(#paint9_linear_5_4)"/>
<path d="M131.1 120.1C133.7 120.1 140.1 127.2 142 137C143.9 146.8 139.4 156.6 138.6 157.8C138.6 157.8 139.9 154.8 137.7 150.6C134.4 144.2 133.1 143.2 133.9 134C134.6 125.2 133.9 120.7 131.1 120.1Z" fill="#EEE9D6"/>
<path d="M95 31.8C97.7 31.6 98.1 21.2 95.3 13.1C91.4 1.9 85.8 3.1 85.8 3.1C85.8 3.1 82.5 -1.6 79.7 2.1C79.4 2.5 78.9 2.8 78.4 2.8C76.7 2.8 73.4 4.1 76.1 12.3C79.6 22.9 89.9 32.2 95.2 31.8H95Z" fill="#EEE9D6"/>
<path d="M95 31.8C97.7 31.6 98.1 21.2 95.3 13.1C91.4 1.9 85.8 3.1 85.8 3.1C83.2 6.3 82.9 11.3 77.9 16.6C82.3 25.3 90.5 32.1 95.1 31.8H95Z" fill="url(#paint10_linear_5_4)"/>
<path d="M78.2 2.8C76.5 2.8 73.2 4.1 75.9 12.3C76.4 13.8 77.2 15.2 77.9 16.6C77.9 16.6 77 6.1 79.6 2.3C79.3 2.7 78.7 2.9 78.2 2.9V2.8Z" fill="url(#paint11_linear_5_4)"/>
<path d="M95.5 31.6C86.9 25.1 82.2 12.1 83.7 6.4C82.9 8.2 81.3 9.9 80.7 12.6C82.1 21.6 91.5 29 95.4 31.7L95.5 31.6Z" fill="#EEE9D6"/>
<defs>
<linearGradient id="paint0_linear_5_4" x1="222.3" y1="70.4" x2="-142.7" y2="223.2" gradientUnits="userSpaceOnUse">
<stop stop-color="#F2DBDF"/>
<stop offset="0.5" stop-color="#F9C3F0"/>
<stop offset="0.8" stop-color="#FDB5FB"/>
<stop offset="1" stop-color="#FFB0FF"/>
</linearGradient>
<linearGradient id="paint1_linear_5_4" x1="88.8" y1="79.8" x2="94.8" y2="128.9" gradientUnits="userSpaceOnUse">
<stop stop-color="#F2DBDF"/>
<stop offset="0.5" stop-color="#F9C3F0"/>
<stop offset="0.8" stop-color="#FDB5FB"/>
<stop offset="1" stop-color="#FFB0FF"/>
</linearGradient>
<linearGradient id="paint2_linear_5_4" x1="153.4" y1="14.6" x2="126.6" y2="42.3" gradientUnits="userSpaceOnUse">
<stop offset="0.2" stop-color="#EEE9D6"/>
<stop offset="0.3" stop-color="#F2DBDF"/>
<stop offset="0.6" stop-color="#F9C3F0"/>
<stop offset="0.8" stop-color="#FDB5FB"/>
<stop offset="1" stop-color="#FFB0FF"/>
</linearGradient>
<linearGradient id="paint3_linear_5_4" x1="171.1" y1="113.9" x2="129.9" y2="113.9" gradientUnits="userSpaceOnUse">
<stop offset="0.2" stop-color="#EEE9D6"/>
<stop offset="0.3" stop-color="#F2DBDF"/>
<stop offset="0.6" stop-color="#F9C3F0"/>
<stop offset="0.8" stop-color="#FDB5FB"/>
<stop offset="1" stop-color="#FFB0FF"/>
</linearGradient>
<linearGradient id="paint4_linear_5_4" x1="142.8" y1="146.4" x2="138.4" y2="107" gradientUnits="userSpaceOnUse">
<stop offset="0.2" stop-color="#EEE9D6"/>
<stop offset="0.3" stop-color="#F2DBDF"/>
<stop offset="0.6" stop-color="#F9C3F0"/>
<stop offset="0.8" stop-color="#FDB5FB"/>
<stop offset="1" stop-color="#FFB0FF"/>
</linearGradient>
<linearGradient id="paint5_linear_5_4" x1="54.6" y1="129.4" x2="21.1" y2="194.7" gradientUnits="userSpaceOnUse">
<stop offset="0.2" stop-color="#EEE9D6"/>
<stop offset="0.3" stop-color="#F2DBDF"/>
<stop offset="0.6" stop-color="#F9C3F0"/>
<stop offset="0.8" stop-color="#FDB5FB"/>
<stop offset="1" stop-color="#FFB0FF"/>
</linearGradient>
<linearGradient id="paint6_linear_5_4" x1="36.677" y1="74.0205" x2="80.8993" y2="86.4299" gradientUnits="userSpaceOnUse">
<stop offset="0.2" stop-color="#EEE9D6"/>
<stop offset="0.3" stop-color="#F2DBDF"/>
<stop offset="0.6" stop-color="#F9C3F0"/>
<stop offset="0.8" stop-color="#FDB5FB"/>
<stop offset="1" stop-color="#FFB0FF"/>
</linearGradient>
<linearGradient id="paint7_linear_5_4" x1="164.8" y1="43.1" x2="119.8" y2="84.9" gradientUnits="userSpaceOnUse">
<stop offset="0.2" stop-color="#EEE9D6"/>
<stop offset="0.3" stop-color="#F2DBDF"/>
<stop offset="0.6" stop-color="#F9C3F0"/>
<stop offset="0.8" stop-color="#FDB5FB"/>
<stop offset="1" stop-color="#FFB0FF"/>
</linearGradient>
<linearGradient id="paint8_linear_5_4" x1="85.8" y1="70.2" x2="117.5" y2="69.2" gradientUnits="userSpaceOnUse">
<stop offset="0.2" stop-color="#EEE9D6"/>
<stop offset="0.3" stop-color="#F2DBDF"/>
<stop offset="0.6" stop-color="#F9C3F0"/>
<stop offset="0.8" stop-color="#FDB5FB"/>
<stop offset="1" stop-color="#FFB0FF"/>
</linearGradient>
<linearGradient id="paint9_linear_5_4" x1="94.7" y1="160.5" x2="133.1" y2="125.2" gradientUnits="userSpaceOnUse">
<stop offset="0.2" stop-color="#EEE9D6"/>
<stop offset="0.3" stop-color="#F2DBDF"/>
<stop offset="0.6" stop-color="#F9C3F0"/>
<stop offset="0.8" stop-color="#FDB5FB"/>
<stop offset="1" stop-color="#FFB0FF"/>
</linearGradient>
<linearGradient id="paint10_linear_5_4" x1="83.5078" y1="-2.23926" x2="90.5525" y2="34.8842" gradientUnits="userSpaceOnUse">
<stop stop-color="#F2DBDF"/>
<stop offset="0.5" stop-color="#F9C3F0"/>
<stop offset="0.8" stop-color="#FDB5FB"/>
<stop offset="1" stop-color="#FFB0FF"/>
</linearGradient>
<linearGradient id="paint11_linear_5_4" x1="81.1227" y1="11.7808" x2="69.1475" y2="0.218715" gradientUnits="userSpaceOnUse">
<stop stop-color="#F2DBDF"/>
<stop offset="0.5" stop-color="#F9C3F0"/>
<stop offset="0.8" stop-color="#FDB5FB"/>
<stop offset="1" stop-color="#FFB0FF"/>
</linearGradient>
</defs>
</svg>
